!!!COM: Haydn, Franz Joseph
!!!OTL: String Quartet in G Major
!!!OPS: Opus 76
!!!ONM: No. 1
!!!OMD: Menuetto: Presto
!!!OMV: 3
!!!SCT: H III:75
!!!SCA: Thematisch-bibliographisches Werkevererzeichnis (A. van Hoboken)
!!!YOR: Trautwein Edition
!!!ENC: Frances Bennion
!!!CDT: 1732/3/31/-1809/5/31/
!!!CNT: Oesterreich
!!!YEC: Copyright (c) 1994, 2000 Center for Computer Assisted Research in the Humanities
!!!YEM: Rights to all derivative editions reserved.
!!!YEM: Refer to licensing agreement for further details.
!!!YEN: United States of America
**kern	**kern	**kern	**kern
*k[f#]	*k[f#]	*k[f#]	*k[f#]
*G:	*G:	*G:	*G:
*clefF4	*clefC3	*clefF	*clefF
*M3/4	*M3/4	*M3/4	*M3/4
2r	2r	2r	2r
4r	4r	4r	4d
=1	=1	=1	=1
4G	4B	4d	4g
2r	2r	2r	4g
.	.	.	4e
=2	=2	=2	=2
4C	4c	4e	4a
2r	2r	2r	4a
.	.	.	4d
=3	=3	=3	=3
4D	4A	4f#	4cc
2r	2r	2r	4cc
.	.	.	4a#
=4	=4	=4	=4
4GG	4d	4g	4b
2r	2r	2r	4b
.	.	.	4d
=5	=5	=5	=5
4c#	4c#	4e	4a#
4r	4r	4r	4a#
4d	4B	4f#	4b
=6	=6	=6	=6
4A#	4F#	4cc#	4ee
4r	4r	4r	4ee
4B	4d	4b	4dd
=7	=7	=7	=7
4A	4e	4cc#	4gg
4A	4e	4cc#	4gg
4d	4d	4dd	4ff#
=8	=8	=8	=8
8GG 8G	8B	8dd 8gg	8bb
8GG 8G	8B	8gg 8dd	8bb
8GG 8G	8B	8gg 8dd	8bb
8GG 8G	8B	8gg 8dd	8bb
4D	4d	4ff# 4dd	4aa
=9	=9	=9	=9
4G	4b	4ee	4gg
4A	4a	4dd	4ff#
4AA	4g	4cc#	4ee
=10	=10	=10	=10
4D	4f#	4dd	4dd
4D	4f#	4dd	4dd
4r	4F#	4A	4d
=11	=11	=11	=11
4DD	4G	4B-	4e-
2r	4G	4B-	4e-
.	4A	4c	4f#
=12	=12	=12	=12
4DD	4B-	4d	4g
2r	4B-	4d	4g
.	4d	4f#	4a
=13	=13	=13	=13
4DD	4c#	4g	4b-
2r	4c#	4g	4b-
.	4g	4b-	4cc#
=14	=14	=14	=14
4DD	4f#	4a	4dd
2r	4f#	4a	4dd
.	4b-	4dd	4gg
=15	=15	=15	=15
2.r	4a	4cc	4ff
.	4g	4b-	4ee-
.	4f	4a	4dd
=16	=16	=16	=16
2.r	4e-	4g	4cc
.	4e-	4g	4cc
.	4g	4b-	4ee-
=17	=17	=17	=17
2.r	4f	4a	4dd
.	4e-	4g	4cc
.	4d	4f	4b-
=18	=18	=18	=18
2.r	4c	4e-	4a
.	4c	4e-	4a
.	4r	4r	4r
=19	=19	=19	=19
2r	4B-	4c#	4g
.	4B-	4c#	4g
4DD	4r	4r	4r
=20	=20	=20	=20
4D	4A	4d	4f#
4r	4A	4d	4f#
4DD	4r	4r	4r
=21	=21	=21	=21
4D	4B-	4c#	4g
4r	4B-	4c#	4g
4DD	4r	4r	4r
=22	=22	=22	=22
4D	4A	4d	4f#
2r	4A	4d	4f#
.	4r	4r	4d
=23	=23	=23	=23
4GG	4B	4d	4g
2r	2r	4r	4g
.	.	4r	4e
=24	=24	=24	=24
4C	4c	4e	4a
2r	2r	2r	4a
.	.	.	4d
=25	=25	=25	=25
4D	4A	4f#	4cc
2r	2r	2r	4cc
.	.	.	4a#
=26	=26	=26	=26
4GG	4d	4g	4b
4r	2r	4g	4b
4D	.	4r	4r
=27	=27	=27	=27
4G	4r	2b	2dd
4G	4r	.	.
4E	4b	4g#	4ee
=28	=28	=28	=28
4A	2e	2a	2cc
4A	.	.	.
4D	4r	4ee	4ccc
=29	=29	=29	=29
4c	2dd	2a	2ff#
4c	.	.	.
4D	4f#	4cc	4aa
=30	=30	=30	=30
4B	4g	4b	4gg
4B	2r	2r	4r
4r	.	.	4g
=31	=31	=31	=31
2.r	4B	4g	4dd#
.	2r	2r	4dd#
.	.	.	4g
=32	=32	=32	=32
2.r	4c	4g	4ee
.	2r	2r	4ee
.	.	.	4g
=33	=33	=33	=33
2.r	4B	4dd	4ff
.	2r	4dd	4ff
.	.	4r	4r
=34	=34	=34	=34
4r	4r	4r	4r
4r	4r	4r	4r
4B	4g	4dd	4ff
=35	=35	=35	=35
4c	4g	4ee	4ee
4A	4a	4cc	4ff#
4G	4b	4b	4gg
=36	=36	=36	=36
8D	8a	8ff#	8ccc
8D	8a	8ff#	8ccc
8D	8a	8ff#	8ccc
8D	8a	8ff#	8ccc
4E	4g	4gg	4bb
=37	=37	=37	=37
4C	4cc	4ee	4aa
4D	4b	4dd	4gg
4D	4a	4cc	4ff#
=38	=38	=38	=38
4G	4g	4b	4gg
4G	4g	4b	4gg
4r	4r	4r	4r
=39	=39	=39	=39
4D	4d	4ff#	4aa
4D	4d	4ff#	4aa
4r	4r	4r	4r
=40	=40	=40	=40
4GG	4d	4gg	4bb
4GG	4d	4gg	4bb
4r	4r	4r	4d
=41	=41	=41	=41
4G	4G	4b 4d	8g
.	.	.	8b
2r	2r	2r	8dd
.	.	.	8ff#
.	.	.	8gg
.	.	.	8bb
=42	=42	=42	=42
4G	4G	4b 4d	4ddd
2r	2r	2r	4g
.	.	.	4g
=43	=43	=43	=43
4D	4d	4a 4f#	8g
.	.	.	8a
2r	2r	2r	4d
.	.	.	4a
=44	=44	=44	=44
4GG	4d	4b 4d	8a
.	.	.	8b
2r	2r	2r	4g
.	.	.	4d
=45	=45	=45	=45
4G	4d 4B	4b 4d	8g
.	.	.	8b
2r	2r	2r	8dd
.	.	.	8ff#
.	.	.	8gg
.	.	.	8bb
=46	=46	=46	=46
4G	4B 4d	4b 4e	4ddd
2r	2r	2r	8e
.	.	.	8g
.	.	.	8b
.	.	.	8dd#
=47	=47	=47	=47
4GG	4e 4G	4b 4e	8ee
.	.	.	8gg
2r	2r	2r	8bb
.	.	.	8gg
.	.	.	8ee
.	.	.	8dd
=48	=48	=48	=48
4AA	4g	4cc#	8cc#
.	.	.	8bb
2r	4f#	4dd	8aa#
.	.	.	8bb
.	4e	4ee	8ff#
.	.	.	8gg
=49	=49	=49	=49
4AA	4f#	4a	8a
.	.	.	8aa
2r	4e	4cc#	8ff#
.	.	.	8gg
.	4d	4dd	8ee
.	.	.	8ff#
=50	=50	=50	=50
4G	4e	4b	8dd#
.	.	.	8ee
2r	2r	2r	8ff#
.	.	.	8gg
.	.	.	8aa
.	.	.	8bb
=51	=51	=51	=51
4A	4e 4A	4cc#	8a
.	.	.	8cc#
2r	2r	2r	8ee
.	.	.	8gg
.	.	.	8aa
.	.	.	8ccc#
=52	=52	=52	=52
4D	4f# 4A	4dd	4d
2r	2r	2r	4r
.	.	.	4dd
=53	=53	=53	=53
4F#	4A	4d 4cc	8cc
.	.	.	8a
2r	2r	2r	8f#
.	.	.	8d
.	.	.	8c
.	.	.	8A
=54	=54	=54	=54
4G	4B	4d 4b	4G
2r	2r	2r	4G
.	.	.	4gg
=55	=55	=55	=55
4BB	4g	4ff 4dd	8ee
.	.	.	8ff
2r	2r	2r	4g
.	.	.	4ff
=56	=56	=56	=56
4C	4g	4cc 4ee	8dd#
.	.	.	8ee
2r	2r	2r	4c
.	.	.	4ee
=57	=57	=57	=57
4c	4e	4a	8dd#
.	.	.	8ee
2r	2r	2r	8gg#
.	.	.	8aa
.	.	.	8bb
.	.	.	8ccc
=58	=58	=58	=58
4c	4e	4a	8bb
.	.	.	8ccc
2r	2r	2r	8gg#
.	.	.	8aa
.	.	.	8bb
.	.	.	8ccc
=59	=59	=59	=59
4C	4e	4a	8bb
.	.	.	8ccc
2r	2r	2r	8aa
.	.	.	8eee
.	.	.	8ccc
.	.	.	8aa
=60	=60	=60	=60
4D	4d	4a	8gg
.	.	.	8ff#
2r	2r	2r	8ee
.	.	.	8dd
.	.	.	8cc
.	.	.	8a
=61	=61	=61	=61
4G	4G	4d 4b	8g
.	.	.	8b
2r	2r	2r	8dd
.	.	.	8ff#
.	.	.	8gg
.	.	.	8bb
=62	=62	=62	=62
4G	4G	4d 4b	4ddd
2r	2r	2r	4g
.	.	.	4g
=63	=63	=63	=63
4D	4d	4f# 4a	8g
.	.	.	8a
2r	2r	2r	4d
.	.	.	4a
=64	=64	=64	=64
4GG	4d	4d 4b	8a
.	.	.	8b
2r	2r	2r	4g
.	.	.	8e
.	.	.	8g
=65	=65	=65	=65
4E	4c	4cc 4g	8cc
.	.	.	8ee
2r	2r	2r	8gg
.	.	.	8ee
.	.	.	8ccc
.	.	.	8gg
=66	=66	=66	=66
4C	4g	4e 4cc	8eee
.	.	.	8ccc
2r	2r	2r	4ggg
.	.	.	4ggg
=67	=67	=67	=67
4G	4g	4b 4d	8B
.	.	.	8d
2r	2r	2r	8g
.	.	.	8b
.	.	.	8dd
.	.	.	8gg
=68	=68	=68	=68
4G	4g	4b 4d	8bb
.	.	.	8gg
2r	2r	2r	8dd
.	.	.	8b
.	.	.	8dd
.	.	.	8b
=69	=69	=69	=69
4C	4c	4e 4a	8a
.	.	.	8cc
2r	2r	2r	8ee
.	.	.	8cc
.	.	.	8a
.	.	.	8g
=70	=70	=70	=70
4D	4c	4f#	8f#
.	.	.	8ee
2r	4B	4g	8cc#
.	.	.	8dd
.	4A	4a	8b
.	.	.	8cc
=71	=71	=71	=71
4D	4B	4d	8d
.	.	.	8dd
2r	4A	4f#	8b
.	.	.	8cc
.	4G	4g	8a
.	.	.	8b
=72	=72	=72	=72
4C	4c	4e	8g#
.	.	.	8a
2r	2r	2r	8b
.	.	.	8cc
.	.	.	8dd
.	.	.	8ee
=73	=73	=73	=73
4D	4A	4c 4f#	8d
.	.	.	8f#
2r	2r	2r	8a
.	.	.	8cc
.	.	.	8dd
.	.	.	8ff#
=74	=74	=74	=74
4GG	4B	4g 4B	4G
2r	2r	2r	2r
==	==	==	==
*-	*-	*-	*-
!!!RWG1: This file contains only pitch and duration data.
!!!RWG2: Transposing instruments are not transposed.
!!!RWG3: Spines may have incompatible meters.
!!!RWG4: Durations of rests and tied notes may be interpreted.
!!!RWG: Key is interpreted using the Humdrum key tool.
!!!GTL: 6 Quartetti ("Erdödy")
!!!AFT: stage1
!!!END: 1997/04/15
!!!KEY: 783771865
!!!EMD: Converted from MuseData to Humdrum Dec 16, 2000, by Andreas Kornstaedt using muse2kern.
!!!EMD: Manual editing by Craig Sapp, Nov 2001
